!!!COM: Bach, Johann Sebastian
!!!CDT: 1685/3//-1750/7/28/
!!!OTL@@DE: O Haupt voll Blut und Wunden
!!!OTL@EN:  O sacred head now wounded
!!!OPR: Christmas Oratorio
!!!AGN: 4-Part Chorale
!!!SCT: Erk 345
!!!SCT: BWV 248
!!!YEC: Copyright 2003 by Craig Stuart Sapp
!!!license: GNU General Public License (http://www.gnu.org/copyleft/gpl.html)
!!!SMA: 371 Bach Chorales, edited by Ludwig Erk, C.F. Peters
!!!PDT: 1850, 1865
!!!ONB: Harmony and Root analysis done manually by Craig Sapp
**kern	**kern	**kern	**kern	**root	**harm	**kern
!bass	!tenor	!alto	!soprno	!	!	!
*Iorgan	*Iorgan	*Iorgan	*Iorgan	*Iorgan	*	*Iorgan
*clefF4	*clefF4	*clefF4	*clefF4	*	*	*
*M4/4	*M4/4	*M4/4	*M4/4	*M4/4	*M4/4	*M4/4
*met(C)	*met(C)	*met(C)	*met(C)	*met(C)	*met(C)	*met(C)
*MM56	*MM56	*MM56	*MM56	*MM56	*MM56	*MM56
*k[]	*k[]	*k[]	*k[]	*k[]	*k[]	*k[]
*a:	*a:	*a:	*a:	*a:	*a:	*a:
*>[A,A,B]	*>[A,A,B]	*>[A,A,B]	*>[A,A,B]	*>[A,A,B]	*>[A,A,B]	*>[A,A,B]
*>A	*>A	*>A	*>A	*>A	*>A	*>A
4E	4G#	8e	4e	4EE	V7	4E 4g# 4b 4dd
.	.	8d	.	.	.	.
=1	=1	=1	=1	=1	=1	=1
4F	4A	8c	4a	4FF	VI	4F 4a 4cc
.	.	8d	.	.	.	.
4G	4B	8d	4g	4GG	-VII	4G 4b 4dd
.	.	8e	.	.	.	.
8A	8c	8e	4f	8FF	VI7b	8f 8A 8cc 8ee
8B	8d	8d	.	8BB	iio	8B 8dd 8ff
4c	4G	8d	4e	4CC	III	4C 4e 4g
.	.	8c	.	.	.	.
=2	=2	=2	=2	=2	=2	=2
2F	8A	4c	2d	2DD	iv	2D 2f 2a
.	8G#	.	.	.	.	.
.	4A	8B	.	.	.	.
.	.	8A	.	.	.	.
4E;	4G#;	4B;	4e;	4EE	V	4E 4g# 4b
4E	4G#	4e	4b	4EE	V	4E 4g# 4b
=3	=3	=3	=3	=3	=3	=3
8A	8A	4e	4cc	4AA	i	4A 4cc 4ee
8Gn	8B	.	.	.	.	.
8F	4c	4a	4cc	4FF	VI	4F 4a 4cc
8E	.	.	.	.	.	.
8D	4f	4a	8b	4BB	ii7D	4B 4dd 4ff# 4aa
8BB	.	.	16cc	.	.	.
.	.	.	16dd	.	.	.
4E	8e	4g#	4b	4EE	V7	4E 4g# 4b 4dd
.	8d	.	.	.	.	.
=4	=4	=4	=4	=4	=4	=4
2.AA;	2.c;	2.e;	2.a;	2.AA	i	2.A 2.cc 2.ee
=:|!	=:|!	=:|!	=:|!	=:|!	=:|!	=:|!
*>B	*>B	*>B	*>B	*>B	*>B	*>B
4A	4e	8a	4cc	4AA	i	4A 4cc 4ee
.	.	8g	.	.	.	.
=5	=5	=5	=5	=5	=5	=5
4D	8d	4f	8b	4BB	iiob	4b 4D 4ff
.	8c	.	8a	.	.	.
4E	4B	8e	4g	4EE	v	4E 4g 4b
.	.	8d	.	.	.	.
8F	8A	4c	4a	4FF	VI	4F 4a 4cc
8E	8G	.	.	.	.	.
4D	8F	4f	4b	4BB	iiob	4b 4D 4ff
.	8G	.	.	.	.	.
=6	=6	=6	=6	=6	=6	=6
8AA	4A	4f	2cc	4FF	VIb	4f 4A 4cc
8BB	.	.	.	.	.	.
4C	8G	8e	.	4CC	III	4C 4e 4g
.	8F	8d	.	.	.	.
4C;	4G;	4e;	4cc;	4CC	III	4C 4e 4g
4C	4c	4e	4g	4CC	III	4C 4e 4g
=7	=7	=7	=7	=7	=7	=7
8F	8c	4f	4a	4FF	VI	4F 4a 4cc
8E	8d	.	.	.	.	.
8D	4e	8B-	4g	4AA	V7b/IV	4a 4C# 4ee 4gg
8C#	.	8A	.	.	.	.
4D	8d	8A	8f	8DD	iv	8D 8f 8a
.	8c#	8G	8e	8CC#	vii/IV	8C# 8e 8g#
4D	8d	8A	4f	8DD	iv	8D 8f 8a
.	8G#	8d	.	8GG#	vii7Dc	8g# 8b 8D# 8ff
=8	=8	=8	=8	=8	=8	=8
2.AA;	2.A;	2.c#;	2.e;	2.AA	I	2.A 2.cc# 2.ee
4F#	4A	4d	4ccn	4DD	V7b/-VII	4d 4F# 4a 4cc
=9	=9	=9	=9	=9	=9	=9
4G	8G	4d	8b	4GG	-VII	4G 4b 4dd
.	8A	.	8cc	.	.	.
8G	4B	4g	4dd	4GG	-VII	4G 4b 4dd
8F#	.	.	.	.	.	.
4.E	8c	8g	4cc	4CC	IIIb	4c 4E 4g
.	8d	8f#	.	.	.	.
.	4e	4g	4b	4EE	V	4E 4g# 4b
8D	.	.	.	.	.	.
=10	=10	=10	=10	=10	=10	=10
8C	4e	4g	2a	4AA	i7	4A 4cc 4ee 4gg#
8AA	.	.	.	.	.	.
4D	4d	4f#	.	4DD	V/-VII	4D 4f# 4a
4GG;	4d;	4g;	4b;	4GG	-VII	4G 4b 4dd
8C	4c	4g	4e	4CC	III	4C 4e 4g
8BB	.	.	.	.	.	.
=11	=11	=11	=11	=11	=11	=11
8AA	8c	8c	4f	8FF	VIb	8f 8A 8cc
8BB	8B	8d	.	8BB	iio	8B 8dd 8ff
[4C	8B	4c	4e	4AA	ib	4a 4C 4ee
.	8A	.	.	.	.	.
8C]	4A	4F	4d	4BB	ii7D	4B 4dd 4ff# 4aa
[8BB	.	.	.	.	.	.
8BB]	8G	4d	8g	8GG	-VIIb	8g 8B 8dd
8AA	8A	.	8f	8DD	ivc	8d 8f 8A
=12	=12	=12	=12	=12	=12	=12
4GG#	4B	4d	2.e;	4EE	V7b	4e 4G# 4b 4dd
4AA	4A	4c	.	4AA	i	4A 4cc 4ee
4E;	4G#;	4B;	.	4EE	V	4E 4g# 4b
==	==	==	==	==	==	==
*-	*-	*-	*-	*-	*-	*-
